X:1
T:Sov’reign God, to You Alone
T:Sov’reign God, to You Alone
T:Scott Werdebaugh
T:Scott Werdebaugh, 2017
T:© 2017 Scott Werdebaugh &amp; New Heart Music.  May be freely copied  for Christian worship or devotions without any changes. All other rights reserved.
T:© 2017 Scott Werdebaugh &amp; New Heart Music.  May be freely copied  for Christian worship or devotions without any changes. All other rights reserved.
T:© 2017 Scott Werdebaugh &amp; New Heart Music.  May be freely copied  for Christian worship or devotions without any changes. All other rights reserved.
C:Scott Werdebaugh
Z:© 2017 Scott Werdebaugh & New Heart Music.  May be freely copied  for
Z:Christian worship or devotions without any changes. All other rights reserved.
%%score 1 2
L:1/8
Q:1/4=96
M:4/4
K:C
V:1 treble 
V:2 bass 
V:1
"^With awesome reverence""^C" [G,C]"^G"[B,D] |"^C" [CE]3 [CE]"^F" [CF]3"^G7" [DF] | %2
w: 1.~Sov’- reign|God, to You a-|
"^C" [CE]4 z2"^C" (3[G,C][G,C]"^G"[B,D] |"^C" [CE]3 [CE]"^G" [B,D]3"^F" [A,C] | %4
w: lone, I hum- bly|bow be- fore Your|
"^C" [G,C]4 z2"^C" [G,C]"^G"[B,D] |"^C" [CE]3 [CE]"^F" [CF]3"^C" [CE] | %6
w: throne; Lord of|glo- ry, full of|
"^C" [CE]4 z2"^C" [G,C]"^G"[B,D] |"^C" [CE]3 [CE]"^G" [B,D]3"^F" [A,C] | %8
w: grace, Let me|know Your warm em-|
"^C" [G,C]4 z2"^C""^Refrain" (3[Ec][Ec][DB] ||"^F" [CA]3"^C" [EG] [CE]3 [EG] | %10
w: brace. I come to|You, this ho- ly|
"^G" [DG]6 z"^C" [EG] |"^C" [Ec]3"^G" [DB]"^F" [CA]3"^C" [EG] |"^F" [CA]3"^G" [DB]"^C" [Ec]3 z | %13
w: hour, To|wor- ship You and|Your great pow’r.|
"^C" [Ec]3"^G" [DB]"^F" [CA]3"^C" [EG] |"^C" [CE]3 [EG]"^G" [DG]3 z | %15
w: Fix my spir- it,|still my heart,|
"^C" [G,C]3"^Dm" [A,D]"^C" [CE]3 [CE] |"^G" [B,D]3"^F" [A,C]"^C" [G,C]4- | %17
w: Fill my soul and|cleanse each part.|
 [G,C]4 z2"^C" [G,C]"^G"[B,D] ||"^C" [CE]2 [CE][CE]"^F" [CF]3"^C" [CE] | %19
w: * 2.~Teach me|now all You have for|
"^C" [CE]4 z2"^C" (3[CE][CE]"^G7"[DF] |"^C" [EG]3 [EG]"^F" [CA]3"^C" [EG]/"^G7"[DF]/ | %21
w: me, I give my|all, Lord, help me to|
"^C" [EG]4 z2"^C" (3[EG]"^F"[CA]"^G"[DB] |"^C" [Ec]3 [EG]"^F" [FA]3"^C" [EG] | %23
w: see How I can|love, o- bey, and|
"^C" [EG]4 z2"^C" (3[G,C][G,C]"^G"[B,D] |"^C" [CE]3 [CE]"^G" [B,D]3"^F" [A,C] | %25
w: grow, So through my|life, Your Pre- sence|
"^C" [G,C]4 z2"^Refrain""^C" (3[Ec][Ec]"^G"[DB] ||"^F" [CA]3"^C" [EG] [CE]3 [EG] | %27
w: flow. I come to|You, this ho- ly|
"^G" [DG]6 z"^C" [EG] |"^C" [Ec]3"^G" [DB]"^F" [CA]3"^C" [EG] |"^F" [CA]3"^G" [DB]"^C" [Ec]3 z | %30
w: hour, To|wor- ship You and|Your great pow’r.|
"^C" [Ec]3"^G" [DB]"^F" [CA]3"^C" [EG] |"^C" [CE]3 [EG]"^G" [DG]3 z | %32
w: Fix my spir- it,|still my heart,|
"^C" [G,C]3"^Dm" [A,D]"^C" [CE]3 [CE] |"^G" [B,D]3"^F" [A,C]"^C" [G,C]4- | %34
w: Fill my soul and|cleanse each part.|
 [G,C]4 z2"^C" [G,C]"^G"[B,D] ||"^C" [CE]3 [CE]"^F" [CF]3 [CF] |"^C" [CE]4 z2"^C" [G,C]"^G"[B,D] | %37
w: * 3.~Ho- ly|God, You are my|King, Make my|
"^C" [CE]3 [CE]"^G" [B,D]3"^F" [A,C] |"^C" [G,C]4 z2"^C" (3[G,C][G,C]"^G"[B,D] | %39
w: life to whol- ly|sing; I wor- ship|
"^C" [CE]3 [CE]"^F" [CF]3"^C" [CE] |"^C" [CE]4 z2"^C" (3[G,C][G,C]"^G"[B,D] | %41
w: You, I bring You|praise, Sole- ly for|
"^C" [CE]3 [CE]"^G" [B,D]3"^F" [A,C] |"^C" [G,C]4 z2"^C""^Final Refrain" (3[Ec][Ec]"^G"[DB] || %43
w: You, I give my|days. I come to|
"^F" [CA]3"^C" [EG] [CE]3 [EG] |"^G" [DG]6 z"^C" [EG] |"^C" [Ec]3"^G" [DB]"^F" [CA]3"^C" [EG] | %46
w: You, this ho- ly|hour, To|wor- ship You and|
"^F" [CA]3"^G" [DB]"^C" [Ec]3 z |"^C" [Ec]3"^G" [DB]"^F" [CA]3"^C" [EG] | %48
w: Your great pow’r.|Fix my spir- it,|
"^C" [CE]3 [EG]"^G" [DG]3 z |:"^Opt""^C" [G,C]3"^Dm" [A,D]"^C" [CE]3 [CE] | %50
w: still my heart,|Fill my soul and|
"^G" [B,D]3"^F" [A,C]"^C" [G,C]4- | [G,C]4 z2"^Play 2 times" :| %52
w: cleanse each part.||
"^C""^Opt"[Q:1/4=96] [CE]3"^Dm" [DF][Q:1/4=88]"^C" [EG]3 [EG] | %53
w: Fill my soul and|
"^G7""^rit." [DF]3[Q:1/4=78] [B,F]"^C" [CE]4- |[Q:1/4=74] [CE]4 z2 |] %55
w: cleanse each part.||
V:2
 [C,E,][G,,G,] | [C,G,]3 [C,G,] [F,A,]3 [G,B,] | [C,G,]4 z2 (3[C,E,][C,E,][G,,G,] | %3
 [C,G,]3 [C,G,] [G,,G,]3 [F,,F,] | [C,E,]4 z2 [C,E,][G,,G,] | [C,G,]3 [C,G,] [F,A,]3 [C,G,] | %6
 [C,G,]4 z2 [C,E,][G,,G,] | [C,G,]3 [C,G,] [G,,G,]3 [F,,F,] | [C,E,]4 z2 (3[C,G,][C,G,][G,,G,] || %9
 [F,A,]3 [C,C] [C,G,]3 [C,C] | [G,B,]6 z [C,C] | [C,G,]3 [G,,G,] [F,A,]3 [C,C] | %12
 [F,A,]3 [G,,G,] [C,G,]3 z | [C,G,]3 [G,,G,] [F,A,]3 [C,C] | [C,G,]3 [C,C] [G,B,]3 z | %15
 [C,E,]3 [D,F,] [C,G,]3 [C,G,] | [G,,G,]3 [F,,F,] [C,E,]4- | [C,E,]4 z2 [C,E,][G,,G,] || %18
 [C,G,]2 [C,G,][C,G,] [F,A,]3 [C,G,] | [C,G,]4 z2 (3[C,G,][C,G,][G,B,] | %20
 [C,G,]3 [C,G,] [F,A,]3 [C,G,]/[G,B,]/ | [C,G,]4 z2 (3[C,C][F,,F,][G,,G,] | %22
 [C,G,]3 [C,C] [F,C]3 [C,C] | [C,C]4 z2 (3[C,E,][C,E,][G,,G,] | [C,G,]3 [C,G,] [G,,G,]3 [F,,F,] | %25
 [C,E,]4 z2 (3[C,G,][C,G,][G,,G,] || [F,,F,]3 [C,C] [C,G,]3 [C,C] | [G,B,]6 z [C,C] | %28
 [C,G,]3 [G,,G,] [F,,F,]3 [C,C] | [F,,F,]3 [G,,G,] [C,G,]3 z | [C,G,]3 [G,,G,] [F,,F,]3 [C,C] | %31
 [C,G,]3 [C,C] [G,B,]3 z | [C,E,]3 [D,F,] [C,G,]3 [C,G,] | [G,,G,]3 [F,,F,] [C,E,]4- | %34
 [C,E,]4 z2 [C,E,][G,,G,] || [C,G,]3 [C,G,] [F,A,]3 [F,A,] | [C,G,]4 z2 [C,E,][G,,G,] | %37
 [C,G,]3 [C,G,] [G,,G,]3 [F,,F,] | [C,E,]4 z2 (3[C,E,][C,E,][G,,G,] | %39
 [C,G,]3 [C,G,] [F,A,]3 [C,G,] | [C,G,]4 z2 (3[C,E,][C,E,][G,,G,] | %41
 [C,G,]3 [C,G,] [G,,G,]3 [F,,F,] | [C,E,]4 z2 (3[C,G,][C,G,][G,,G,] || %43
 [F,,F,]3 [C,C] [C,G,]3 [C,C] | [G,B,]6 z [C,C] | [C,G,]3 [G,,G,] [F,,F,]3 [C,C] | %46
 [F,,F,]3 [G,,G,] [C,G,]3 z | [C,G,]3 [G,,G,] [F,,F,]3 [C,C] | [C,G,]3 [C,C] [G,B,]3 z |: %49
 [C,E,]3 [D,F,] [C,G,]3 [C,G,] | [G,,G,]3 [F,,F,] [C,E,]4- | [C,E,]4 z2"^Play 2 times" :| %52
 [C,G,]3 [D,A,] [C,C]3 [C,C] | [G,,B,]3 [G,,G,] [C,G,]4- | [C,G,]4 z2 |] %55

